src/pos-icons/checkbox-multiple-marked-circle-outline.svg

<svg height="24" viewBox="0 0 24 24" width="24" xmlns="http://www.w3.org/2000/svg"><path d="m14 2a8 8 0 0 0 -8 8 8 8 0 0 0 8 8 8 8 0 0 0 8-8h-2c0 3.32-2.68 6-6 6a6 6 0 0 1 -6-6 6 6 0 0 1 6-6c.43 0 .86.05 1.27.14l1.61-1.6c-.92-.36-1.88-.54-2.88-.54m6.59 1.58-6.59 6.59-2.38-2.38-1.41 1.42 3.79 3.79 8-8m-17.07.82c-1.85 1.52-2.93 3.79-2.93 6.18a8 8 0 0 0 8 8c.64 0 1.27-.08 1.88-.23-1.76-.39-3.38-1.27-4.71-2.48-1.95-1.04-3.17-3.08-3.17-5.29 0-.3.03-.59.07-.89-.04-.37-.07-.74-.07-1.11 0-1.44.32-2.87.93-4.18z"/></svg>

<?xml version="1.0" encoding="UTF-8"?><!DOCTYPE svg PUBLIC "-//W3C//DTD SVG 1.1//EN" "http://www.w3.org/Graphics/SVG/1.1/DTD/svg11.dtd"><svg xmlns="http://www.w3.org/2000/svg" xmlns:xlink="http://www.w3.org/1999/xlink" version="1.1" id="mdi-checkbox-multiple-marked-circle-outline" width="24" height="24" viewBox="0 0 24 24"><path d="M14,2A8,8 0 0,0 6,10A8,8 0 0,0 14,18A8,8 0 0,0 22,10H20C20,13.32 17.32,16 14,16A6,6 0 0,1 8,10A6,6 0 0,1 14,4C14.43,4 14.86,4.05 15.27,4.14L16.88,2.54C15.96,2.18 15,2 14,2M20.59,3.58L14,10.17L11.62,7.79L10.21,9.21L14,13L22,5M4.93,5.82C3.08,7.34 2,9.61 2,12A8,8 0 0,0 10,20C10.64,20 11.27,19.92 11.88,19.77C10.12,19.38 8.5,18.5 7.17,17.29C5.22,16.25 4,14.21 4,12C4,11.7 4.03,11.41 4.07,11.11C4.03,10.74 4,10.37 4,10C4,8.56 4.32,7.13 4.93,5.82Z" /></svg>
